X:1
T:Pohlsk dans
T:(Totakt-pols, nr. JMB-16)
S:efter Jens Millersen Bjerg
R:Totakt-pols
O:Husby, Ringkbing amt, Danmark
N:Lt nr. 12 p CD:n "Totakt-pols" av ke Persson, Ethel Wieslander m fl. Noterna kommer frn nothftet som kan kpas med CD:n s vissa avvikelser kan frekomma. Lten har dr beteckningen JMB-16. Danmark|Fler ltar frn Danmark...
M:2/4
L:1/16
K:G
g2|:f2d2e2f2|(gf)(ga) g2g2|f2d2e2f2|[gBD]6 g2|f2d2e2f2|{a}g2(fe) d2c2|B2G2 (Ac)(AF)|[1 G6 g2:|[2 G6 B2]|
|:c2e2e2c2|B2d2d2B2|c2e2e2c2|B2d2d2B2|e2d2e2f2|{a}g2(fe) d2c2|B2G2 (Ac)(AF)|[1 G6 B2:|[2 G6 z2]|
